svg/device/battery_automotive_line.svg

<?xml version="1.0" encoding="UTF-8"?>
<svg width="24px" height="24px" viewBox="0 0 24 24" version="1.1" xmlns="http://www.w3.org/2000/svg" xmlns:xlink="http://www.w3.org/1999/xlink">
    <title>battery_automotive_line</title>
    <g id="页面-1" stroke="none" stroke-width="1" fill="none" fill-rule="evenodd">
        <g id="Device" transform="translate(-576.000000, -192.000000)" fill-rule="nonzero">
            <g id="battery_automotive_line" transform="translate(576.000000, 192.000000)">
                 <path d="M24,0 L24,24 L0,24 L0,0 L24,0 Z M12.5934901,23.257841 L12.5819402,23.2595131 L12.5108777,23.2950439 L12.4918791,23.2987469 L12.4918791,23.2987469 L12.4767152,23.2950439 L12.4056548,23.2595131 C12.3958229,23.2563662 12.3870493,23.2590235 12.3821421,23.2649074 L12.3780323,23.275831 L12.360941,23.7031097 L12.3658947,23.7234994 L12.3769048,23.7357139 L12.4804777,23.8096931 L12.4953491,23.8136134 L12.4953491,23.8136134 L12.5071152,23.8096931 L12.6106902,23.7357139 L12.6232938,23.7196733 L12.6232938,23.7196733 L12.6266527,23.7031097 L12.609561,23.275831 C12.6075724,23.2657013 12.6010112,23.2592993 12.5934901,23.257841 L12.5934901,23.257841 Z M12.8583906,23.1452862 L12.8445485,23.1473072 L12.6598443,23.2396597 L12.6498822,23.2499052 L12.6498822,23.2499052 L12.6471943,23.2611114 L12.6650943,23.6906389 L12.6699349,23.7034178 L12.6699349,23.7034178 L12.678386,23.7104931 L12.8793402,23.8032389 C12.8914285,23.8068999 12.9022333,23.8029875 12.9078286,23.7952264 L12.9118235,23.7811639 L12.8776777,23.1665331 C12.8752882,23.1545897 12.8674102,23.1470016 12.8583906,23.1452862 L12.8583906,23.1452862 Z M12.1430473,23.1473072 C12.1332178,23.1423925 12.1221763,23.1452606 12.1156365,23.1525954 L12.1099173,23.1665331 L12.0757714,23.7811639 C12.0751323,23.7926639 12.0828099,23.8018602 12.0926481,23.8045676 L12.108256,23.8032389 L12.3092106,23.7104931 L12.3186497,23.7024347 L12.3186497,23.7024347 L12.3225043,23.6906389 L12.340401,23.2611114 L12.337245,23.2485176 L12.337245,23.2485176 L12.3277531,23.2396597 L12.1430473,23.1473072 Z" id="MingCute" fill-rule="nonzero"></path>
                <path d="M18,3 C18.5523,3 19,3.44772 19,4 L19,5 L20,5 C21.1046,5 22,5.89543 22,7 L22,19 C22,20.1046 21.1046,21 20,21 L4,21 C2.89543,21 2,20.1046 2,19 L2,7 C2,5.89543 2.89543,5 4,5 L5,5 L5,4 C5,3.44772 5.44772,3 6,3 C6.55228,3 7,3.44772 7,4 L7,5 L17,5 L17,4 C17,3.44772 17.4477,3 18,3 Z M20,7 L4,7 L4,19 L20,19 L20,7 Z M16,10 C16.51285,10 16.9355092,10.386027 16.9932725,10.8833761 L17,11 L17,12 L18,12 C18.5523,12 19,12.4477 19,13 C19,13.51285 18.613973,13.9355092 18.1166239,13.9932725 L18,14 L17,14 L17,15 C17,15.5523 16.5523,16 16,16 C15.48715,16 15.0644908,15.613973 15.0067275,15.1166239 L15,15 L15,14 L14,14 C13.4477,14 13,13.5523 13,13 C13,12.48715 13.386027,12.0644908 13.8833761,12.0067275 L14,12 L15,12 L15,11 C15,10.4477 15.4477,10 16,10 Z M9,12 C9.55228,12 10,12.4477 10,13 C10,13.51285 9.61395571,13.9355092 9.11662025,13.9932725 L9,14 L6,14 C5.44772,14 5,13.5523 5,13 C5,12.48715 5.38604429,12.0644908 5.88337975,12.0067275 L6,12 L9,12 Z" id="形状" fill="#09244B"></path>
            </g>
        </g>
    </g>
</svg>

<svg xmlns="http://www.w3.org/2000/svg" width="24" height="24"><g fill="none" fill-rule="nonzero"><path d="M24 0v24H0V0h24ZM12.593 23.258l-.011.002-.071.035-.02.004-.014-.004-.071-.035c-.01-.004-.019-.001-.024.005l-.004.01-.017.428.005.02.01.013.104.074.015.004.012-.004.104-.074.012-.016.004-.017-.017-.427c-.002-.01-.009-.017-.017-.018Zm.265-.113-.013.002-.185.093-.01.01-.003.011.018.43.005.012.008.007.201.093c.012.004.023 0 .029-.008l.004-.014-.034-.614c-.003-.012-.01-.02-.02-.022Zm-.715.002a.023.023 0 0 0-.027.006l-.006.014-.034.614c0 .012.007.02.017.024l.015-.002.201-.093.01-.008.004-.011.017-.43-.003-.012-.01-.01-.184-.092Z"/><path fill="#09244B" d="M18 3a1 1 0 0 1 1 1v1h1a2 2 0 0 1 2 2v12a2 2 0 0 1-2 2H4a2 2 0 0 1-2-2V7a2 2 0 0 1 2-2h1V4a1 1 0 0 1 2 0v1h10V4a1 1 0 0 1 1-1Zm2 4H4v12h16V7Zm-4 3a1 1 0 0 1 .993.883L17 11v1h1a1 1 0 0 1 .117 1.993L18 14h-1v1a1 1 0 0 1-1.993.117L15 15v-1h-1a1 1 0 0 1-.117-1.993L14 12h1v-1a1 1 0 0 1 1-1Zm-7 2a1 1 0 0 1 .117 1.993L9 14H6a1 1 0 0 1-.117-1.993L6 12h3Z"/></g></svg>
